img/logo.svg

<?xml version="1.0" encoding="UTF-8"?>
<svg width="400px" height="400px" viewBox="0 0 400 400" version="1.1" xmlns="http://www.w3.org/2000/svg" xmlns:xlink="http://www.w3.org/1999/xlink">
    <g transform="translate(0.000000, 22.000000)">
        <path d="M399.430894,177.642276 C399.430894,151.219512 366.341463,126.178862 315.609756,110.650407 C327.317073,58.9430894 322.113821,17.804878 299.186992,4.63414634 C293.902439,1.54471545 287.723577,0.081300813 280.97561,0.081300813 L280.97561,18.2113821 C284.715447,18.2113821 287.723577,18.9430894 290.243902,20.3252033 C301.300813,26.6666667 306.097561,50.8130081 302.357724,81.8699187 C301.463415,89.5121951 300,97.5609756 298.211382,105.772358 C282.276423,101.869919 264.878049,98.8617886 246.585366,96.9105691 C235.609756,81.8699187 224.227642,68.2113821 212.764228,56.2601626 C239.268293,31.6260163 264.146341,18.1300813 281.056911,18.1300813 L281.056911,0 C258.699187,0 229.430894,15.9349593 199.837398,43.5772358 C170.243902,16.097561 140.97561,0.325203252 118.617886,0.325203252 L118.617886,18.4552846 C135.447154,18.4552846 160.406504,31.8699187 186.910569,56.3414634 C175.528455,68.2926829 164.146341,81.8699187 153.333333,96.9105691 C134.95935,98.8617886 117.560976,101.869919 101.626016,105.853659 C99.7560976,97.7235772 98.3739837,89.8373984 97.398374,82.2764228 C93.5772358,51.2195122 98.2926829,27.0731707 109.268293,20.6504065 C111.707317,19.1869919 114.878049,18.5365854 118.617886,18.5365854 L118.617886,0.406504065 C111.788618,0.406504065 105.609756,1.8699187 100.243902,4.95934959 C77.398374,18.1300813 72.2764228,59.1869919 84.0650407,110.731707 C33.495935,126.341463 0.569105691,151.300813 0.569105691,177.642276 C0.569105691,204.065041 33.6585366,229.105691 84.3902439,244.634146 C72.6829268,296.341463 77.8861789,337.479675 100.813008,350.650407 C106.097561,353.739837 112.276423,355.203252 119.105691,355.203252 C141.463415,355.203252 170.731707,339.268293 200.325203,311.626016 C229.918699,339.105691 259.186992,354.878049 281.544715,354.878049 C288.373984,354.878049 294.552846,353.414634 299.918699,350.325203 C322.764228,337.154472 327.886179,296.097561 316.097561,244.552846 C366.504065,229.02439 399.430894,203.98374 399.430894,177.642276 Z M293.577236,123.414634 C290.569106,133.902439 286.829268,144.715447 282.601626,155.528455 C279.268293,149.02439 275.772358,142.520325 271.95122,136.01626 C268.211382,129.512195 264.227642,123.170732 260.243902,116.99187 C271.788618,118.699187 282.926829,120.813008 293.577236,123.414634 Z M256.341463,210 C250,220.97561 243.495935,231.382114 236.747967,241.056911 C224.634146,242.113821 212.357724,242.682927 200,242.682927 C187.723577,242.682927 175.447154,242.113821 163.414634,241.138211 C156.666667,231.463415 150.081301,221.138211 143.739837,210.243902 C137.560976,199.593496 131.95122,188.780488 126.829268,177.886179 C131.869919,166.99187 137.560976,156.097561 143.658537,145.447154 C150,134.471545 156.504065,124.065041 163.252033,114.390244 C175.365854,113.333333 187.642276,112.764228 200,112.764228 C212.276423,112.764228 224.552846,113.333333 236.585366,114.308943 C243.333333,123.98374 249.918699,134.308943 256.260163,145.203252 C262.439024,155.853659 268.04878,166.666667 273.170732,177.560976 C268.04878,188.455285 262.439024,199.349593 256.341463,210 Z M282.601626,199.430894 C286.99187,210.325203 290.731707,221.219512 293.821138,231.788618 C283.170732,234.390244 271.95122,236.585366 260.325203,238.292683 C264.308943,232.03252 268.292683,225.609756 272.03252,219.02439 C275.772358,212.520325 279.268293,205.934959 282.601626,199.430894 Z M200.162602,286.178862 C192.601626,278.373984 185.04065,269.674797 177.560976,260.162602 C184.878049,260.487805 192.357724,260.731707 199.918699,260.731707 C207.560976,260.731707 215.121951,260.569106 222.520325,260.162602 C215.203252,269.674797 207.642276,278.373984 200.162602,286.178862 Z M139.674797,238.292683 C128.130081,236.585366 116.99187,234.471545 106.341463,231.869919 C109.349593,221.382114 113.089431,210.569106 117.317073,199.756098 C120.650407,206.260163 124.146341,212.764228 127.96748,219.268293 C131.788618,225.772358 135.691057,232.113821 139.674797,238.292683 Z M199.756098,69.1056911 C207.317073,76.9105691 214.878049,85.6097561 222.357724,95.1219512 C215.04065,94.796748 207.560976,94.5528455 200,94.5528455 C192.357724,94.5528455 184.796748,94.7154472 177.398374,95.1219512 C184.715447,85.6097561 192.276423,76.9105691 199.756098,69.1056911 Z M139.593496,116.99187 C135.609756,123.252033 131.626016,129.674797 127.886179,136.260163 C124.146341,142.764228 120.650407,149.268293 117.317073,155.772358 C112.926829,144.878049 109.186992,133.98374 106.097561,123.414634 C116.747967,120.894309 127.96748,118.699187 139.593496,116.99187 Z M66.0162602,218.780488 C37.2357724,206.504065 18.6178862,190.406504 18.6178862,177.642276 C18.6178862,164.878049 37.2357724,148.699187 66.0162602,136.504065 C73.0081301,133.495935 80.6504065,130.813008 88.5365854,128.292683 C93.1707317,144.227642 99.2682927,160.813008 106.829268,177.804878 C99.3495935,194.715447 93.3333333,211.219512 88.7804878,227.073171 C80.7317073,224.552846 73.0894309,221.788618 66.0162602,218.780488 Z M109.756098,334.95935 C98.699187,328.617886 93.902439,304.471545 97.6422764,273.414634 C98.5365854,265.772358 100,257.723577 101.788618,249.512195 C117.723577,253.414634 135.121951,256.422764 153.414634,258.373984 C164.390244,273.414634 175.772358,287.073171 187.235772,299.02439 C160.731707,323.658537 135.853659,337.154472 118.943089,337.154472 C115.284553,337.073171 112.195122,336.341463 109.756098,334.95935 Z M302.601626,273.00813 C306.422764,304.065041 301.707317,328.211382 290.731707,334.634146 C288.292683,336.097561 285.121951,336.747967 281.382114,336.747967 C264.552846,336.747967 239.593496,323.333333 213.089431,298.861789 C224.471545,286.910569 235.853659,273.333333 246.666667,258.292683 C265.04065,256.341463 282.439024,253.333333 298.373984,249.349593 C300.243902,257.560976 301.707317,265.447154 302.601626,273.00813 Z M333.902439,218.780488 C326.910569,221.788618 319.268293,224.471545 311.382114,226.99187 C306.747967,211.056911 300.650407,194.471545 293.089431,177.479675 C300.569106,160.569106 306.585366,144.065041 311.138211,128.211382 C319.186992,130.731707 326.829268,133.495935 333.98374,136.504065 C362.764228,148.780488 381.382114,164.878049 381.382114,177.642276 C381.300813,190.406504 362.682927,206.585366 333.902439,218.780488 Z" id="Shape" fill="#639DDA" fill-rule="nonzero"></path>
        <circle id="360" fill="#FFFFFF" cx="199.918699" cy="177.642276" r="37.1544715"></circle>
    </g>
</svg>

<svg width="400" height="400" viewBox="0 0 400 400" xmlns="http://www.w3.org/2000/svg"><g transform="translate(0 22)"><path d="M399.43 177.642c0-26.422-33.089-51.463-83.82-66.992 11.707-51.707 6.504-92.845-16.423-106.016-5.285-3.09-11.463-4.553-18.211-4.553v18.13c3.74 0 6.748.732 9.268 2.114 11.057 6.342 15.854 30.488 12.114 61.545-.895 7.642-2.358 15.691-4.147 23.902-15.935-3.902-33.333-6.91-51.626-8.861-10.975-15.041-22.357-28.7-33.82-40.65 26.503-24.635 51.381-38.13 68.292-38.13V0c-22.358 0-51.626 15.935-81.22 43.577C170.244 16.097 140.976.325 118.617.325v18.13c16.83 0 41.79 13.415 68.294 37.886-11.383 11.952-22.765 25.529-33.578 40.57-18.374 1.95-35.772 4.959-51.707 8.943a245.274 245.274 0 0 1-4.228-23.578c-3.82-31.056.895-55.203 11.87-61.626 2.44-1.463 5.61-2.113 9.35-2.113V.407c-6.83 0-13.008 1.463-18.374 4.552C77.398 18.13 72.276 59.187 84.065 110.732 33.495 126.342.569 151.3.569 177.642c0 26.423 33.09 51.464 83.821 66.992-11.707 51.707-6.504 92.846 16.423 106.016 5.285 3.09 11.463 4.553 18.293 4.553 22.357 0 51.626-15.935 81.22-43.577 29.593 27.48 58.861 43.252 81.219 43.252 6.829 0 13.008-1.463 18.374-4.553 22.845-13.17 27.967-54.227 16.179-105.772 50.406-15.529 83.333-40.57 83.333-66.91zm-105.853-54.227c-3.008 10.487-6.748 21.3-10.975 32.113-3.334-6.504-6.83-13.008-10.65-19.512-3.74-6.504-7.724-12.845-11.708-19.024 11.545 1.707 22.683 3.821 33.333 6.423zM256.341 210c-6.341 10.976-12.845 21.382-19.593 31.057A423.027 423.027 0 0 1 200 242.683c-12.276 0-24.553-.57-36.585-1.545-6.748-9.675-13.334-20-19.675-30.894-6.179-10.65-11.789-21.464-16.91-32.358 5.04-10.894 10.731-21.788 16.829-32.439 6.341-10.975 12.845-21.382 19.593-31.057A423.026 423.026 0 0 1 200 112.764c12.276 0 24.553.57 36.585 1.545 6.748 9.675 13.334 20 19.675 30.894 6.179 10.65 11.789 21.464 16.91 32.358-5.121 10.894-10.731 21.789-16.829 32.439zm26.26-10.57a348.423 348.423 0 0 1 11.22 32.359c-10.65 2.601-21.87 4.796-33.496 6.504 3.984-6.26 7.968-12.683 11.708-19.269 3.74-6.504 7.235-13.089 10.569-19.593zm-82.438 86.749c-7.561-7.805-15.122-16.504-22.602-26.016 7.317.325 14.797.569 22.358.569 7.642 0 15.203-.163 22.601-.57a317.339 317.339 0 0 1-22.357 26.017zm-60.488-47.886c-11.545-1.708-22.683-3.821-33.334-6.423 3.009-10.488 6.748-21.3 10.976-32.114 3.333 6.504 6.83 13.008 10.65 19.512a538.46 538.46 0 0 0 11.708 19.025zm60.081-169.187c7.561 7.805 15.122 16.504 22.602 26.016-7.317-.325-14.797-.57-22.358-.57-7.642 0-15.203.163-22.602.57a317.338 317.338 0 0 1 22.358-26.016zm-60.163 47.886c-3.983 6.26-7.967 12.683-11.707 19.268-3.74 6.504-7.236 13.008-10.569 19.512a348.423 348.423 0 0 1-11.22-32.357 394.836 394.836 0 0 1 33.496-6.423zM66.016 218.78c-28.78-12.276-47.398-28.373-47.398-41.138 0-12.764 18.618-28.943 47.398-41.138 6.992-3.008 14.634-5.691 22.52-8.211 4.635 15.935 10.732 32.52 18.293 49.512-7.48 16.91-13.496 33.415-18.049 49.268-8.048-2.52-15.69-5.284-22.764-8.293zm43.74 116.18c-11.057-6.342-15.854-30.488-12.114-61.545.895-7.643 2.358-15.691 4.147-23.903 15.935 3.903 33.333 6.91 51.626 8.862 10.975 15.04 22.357 28.7 33.82 40.65-26.503 24.635-51.381 38.13-68.292 38.13-3.658-.08-6.748-.813-9.187-2.195zm192.846-61.952c3.82 31.057-.895 55.203-11.87 61.626-2.44 1.464-5.61 2.114-9.35 2.114-16.83 0-41.789-13.415-68.293-37.886 11.383-11.951 22.765-25.529 33.578-40.57 18.374-1.95 35.772-4.959 51.707-8.942 1.87 8.211 3.333 16.097 4.228 23.658zm31.3-54.228c-6.991 3.009-14.634 5.692-22.52 8.212-4.634-15.935-10.732-32.52-18.293-49.512 7.48-16.91 13.496-33.415 18.05-49.269 8.048 2.52 15.69 5.285 22.845 8.293 28.78 12.276 47.398 28.374 47.398 41.138-.081 12.765-18.7 28.943-47.48 41.138z" fill="#639DDA"/><circle fill="#FFF" cx="199.919" cy="177.642" r="37.154"/></g></svg>
